X:1102
T:Gaelic Reels #1
R:reel
D:Rob Roy soundtrack (performed by Capercaillie)
Z:id:hn-reel-1102
M:C|
L:1/8
K:Amix
A2Ac e2ef | gefd e2dB |1 A2Ac e2ef | gefd B2AB :|2 d2ef gaag | efgd B2A2 ||
|: g2fg aeef | gefd e2dB |1 g2fg aeeg | deed B2A2 :|2 d2ef gaag | efgd B2A2 ||

